X:1
T:Bean a'Ti Ar Lar
M:4/4
R:Reel
K:D
dB|:AGFE D2FD|GEFE DdcB|AGFE D2FD|E2cA BGEG|
AGFE D2FD|GEFE DdBd|AGFE D2FD|(3EFE cA BGEG:||
|:cdec A3d|cdec AFDd|cdec A3F|E2cA BGEd|
cdec A^GAB|cdec AFEd|cdeg (3fgf ec|dBcA Bcdc:||
